X:1
T:Haarlem, 77.75
T:Haarlem, 77.75
T:Berthold Tours, 1875
T:Public Domain Courtesy of the Cyber Hymnal™
C:Berthold Tours, 1875
Z:Public Domain
Z:Courtesy of the Cyber Hymnal™
%%score ( 1 2 ) ( 3 4 )
L:1/8
Q:1/4=110
M:4/4
K:Eb
V:1 treble 
V:2 treble 
V:3 bass 
V:4 bass 
V:1
 [EG]2 [DB]2 [EG]2 [Ee]2 | [Ed]2 [Ec]2 [EB]4 | [EG]2 [DF]2 [EB]2 [=Ec]2 | [Fd]2 [Fc]2 (B2 A2) | %4
 [FG]2 [Fd]2 [Ee]2 [Gc]2 | [FA]2 [EG]2 F4 | [EB]2 [EG]2 [DB]2 [DF]2 | [B,E]8 |] %8
V:2
 x8 | x8 | x8 | x4 F4 | x8 | x4 (E2 D2) | x8 | x8 |] %8
V:3
 [E,B,]2 [G,B,]2 [E,B,]2 [G,,B,]2 | [A,,B,]2 [C,A,]2 [E,G,]4 | [E,B,]2 [A,B,]2 [G,B,]2 [_G,B,]2 | %3
 [F,B,]2 (=A,E) [B,D]4 | [=B,D]2 [G,B,]2 [C,C]2 [E,C]2 | [F,C]2 [G,C]2 [A,_C]4 | %6
 [G,B,]2 [E,B,]2 [G,,B,]2 [B,,A,]2 | [E,G,]8 |] %8
V:4
 x8 | x8 | x8 | x2 F,2 x4 | x8 | x8 | x8 | x8 |] %8

